Newaita-dark/apps/64/opendesktop.svg

<?xml version="1.0" encoding="UTF-8"?>
<svg xmlns="http://www.w3.org/2000/svg" xmlns:xlink="http://www.w3.org/1999/xlink" width="64pt" height="64pt" viewBox="0 0 64 64" version="1.1">
<defs>
<linearGradient id="linear0" gradientUnits="userSpaceOnUse" x1="254" y1="-126.333344" x2="254" y2="180.583328" gradientTransform="matrix(3.779528,0,0,3.779528,0,812.59845)">
<stop offset="0" style="stop-color:rgb(94.117647%,38.431373%,57.254902%);stop-opacity:1;"/>
<stop offset="1" style="stop-color:rgb(92.54902%,25.098039%,47.843137%);stop-opacity:1;"/>
</linearGradient>
<radialGradient id="radial0" gradientUnits="userSpaceOnUse" cx="450.908936" cy="189.579361" fx="450.908936" fy="189.579361" r="21.166656" gradientTransform="matrix(0.000000348341,-0.156265,-0.281277,-0.000000203077,89.046304,127.190659)">
<stop offset="0" style="stop-color:rgb(0%,0%,0%);stop-opacity:0.313725;"/>
<stop offset="0.222222" style="stop-color:rgb(0%,0%,0%);stop-opacity:0.27451;"/>
<stop offset="1" style="stop-color:rgb(0%,0%,0%);stop-opacity:0;"/>
</radialGradient>
<radialGradient id="radial1" gradientUnits="userSpaceOnUse" cx="450.908936" cy="189.579361" fx="450.908936" fy="189.579361" r="21.166656" gradientTransform="matrix(-0.000000348341,0.156265,0.281277,0.000000203077,-25.540237,-15.054964)">
<stop offset="0" style="stop-color:rgb(0%,0%,0%);stop-opacity:0.313725;"/>
<stop offset="0.222222" style="stop-color:rgb(0%,0%,0%);stop-opacity:0.27451;"/>
<stop offset="1" style="stop-color:rgb(0%,0%,0%);stop-opacity:0;"/>
</radialGradient>
<radialGradient id="radial2" gradientUnits="userSpaceOnUse" cx="450.908936" cy="189.579361" fx="450.908936" fy="189.579361" r="21.166656" gradientTransform="matrix(-0.000000348341,-0.156265,0.281277,-0.000000203077,-25.540237,127.190659)">
<stop offset="0" style="stop-color:rgb(0%,0%,0%);stop-opacity:0.313725;"/>
<stop offset="0.222222" style="stop-color:rgb(0%,0%,0%);stop-opacity:0.27451;"/>
<stop offset="1" style="stop-color:rgb(0%,0%,0%);stop-opacity:0;"/>
</radialGradient>
<radialGradient id="radial3" gradientUnits="userSpaceOnUse" cx="450.908936" cy="189.579361" fx="450.908936" fy="189.579361" r="21.166656" gradientTransform="matrix(0.000000348341,0.156265,-0.281277,0.000000203077,89.0463,-15.054965)">
<stop offset="0" style="stop-color:rgb(0%,0%,0%);stop-opacity:0.313725;"/>
<stop offset="0.222222" style="stop-color:rgb(0%,0%,0%);stop-opacity:0.27451;"/>
<stop offset="1" style="stop-color:rgb(0%,0%,0%);stop-opacity:0;"/>
</radialGradient>
<linearGradient id="linear1" gradientUnits="userSpaceOnUse" x1="255.323059" y1="233.5" x2="255.323044" y2="254.666656" gradientTransform="matrix(0.0267201,0,0,0.125012,24.930772,26.877567)">
<stop offset="0" style="stop-color:rgb(0%,0%,0%);stop-opacity:0.27451;"/>
<stop offset="1" style="stop-color:rgb(0%,0%,0%);stop-opacity:0;"/>
</linearGradient>
<linearGradient id="linear2" gradientUnits="userSpaceOnUse" x1="254" y1="-115.749992" x2="254" y2="191.166672" gradientTransform="matrix(3.779528,0,0,3.779528,0,812.59845)">
<stop offset="0" style="stop-color:rgb(100%,54.117647%,39.607843%);stop-opacity:1;"/>
<stop offset="1" style="stop-color:rgb(100%,43.921569%,26.27451%);stop-opacity:1;"/>
</linearGradient>
<linearGradient id="linear3" gradientUnits="userSpaceOnUse" x1="960" y1="575.118103" x2="960" y2="175.118134" >
<stop offset="0" style="stop-color:rgb(14.901961%,77.647059%,85.490196%);stop-opacity:1;"/>
<stop offset="1" style="stop-color:rgb(30.196078%,81.568627%,88.235294%);stop-opacity:1;"/>
</linearGradient>
<linearGradient id="linear4" gradientUnits="userSpaceOnUse" x1="960" y1="574.199158" x2="960" y2="175.118134" gradientTransform="matrix(1,0,0,-1,0,1869.317261)">
<stop offset="0" style="stop-color:rgb(100%,71.764706%,30.196078%);stop-opacity:1;"/>
<stop offset="1" style="stop-color:rgb(100%,65.490196%,14.901961%);stop-opacity:1;"/>
</linearGradient>
</defs>
<g id="surface1">
<path style="fill-rule:nonzero;fill:url(#linear0);stroke-width:11.338583;stroke-linecap:round;stroke-linejoin:miter;stroke:rgb(20%,20%,20%);stroke-opacity:1;stroke-miterlimit:4;" d="M 960.026483 175.140764 C 539.003674 175.140764 199.941547 514.084793 199.941547 935.107601 C 199.941547 1356.13041 539.003674 1695.074438 960.026483 1695.074438 C 1381.049291 1695.074438 1719.99332 1356.13041 1719.99332 935.107601 C 1719.99332 514.084793 1381.049291 175.140764 960.026483 175.140764 Z M 720.049387 535.106408 L 1200.003579 535.106408 C 1244.29069 535.106408 1279.956578 570.772296 1279.956578 615.059407 L 1279.956578 1255.155795 C 1279.956578 1299.442907 1244.29069 1335.108794 1200.003579 1335.108794 L 840.037935 1335.108794 C 800.002386 1395.103068 780.043661 1455.097342 740.008112 1455.097342 C 717.805506 1455.097342 699.972563 1437.264398 699.972563 1415.061793 L 699.972563 1335.108794 C 669.975426 1335.108794 639.978289 1315.150069 639.978289 1255.155795 L 639.978289 615.059407 C 639.978289 570.772296 675.644176 535.106408 720.049387 535.106408 Z M 720.049387 535.106408 " transform="matrix(0.0330761,0,0,0.0330761,0,0)"/>
<path style=" stroke:none;fill-rule:nonzero;fill:url(#radial0);" d="M 36.382812 56.066406 L 41.675781 56.066406 L 41.675781 53.421875 L 36.382812 53.421875 Z M 36.382812 56.066406 "/>
<path style=" stroke:none;fill-rule:nonzero;fill:url(#radial1);" d="M 27.121094 56.066406 L 21.832031 56.066406 L 21.832031 58.714844 L 27.121094 58.714844 Z M 27.121094 56.066406 "/>
<path style=" stroke:none;fill-rule:nonzero;fill:url(#radial2);" d="M 27.121094 56.066406 L 21.832031 56.066406 L 21.832031 53.421875 L 27.121094 53.421875 Z M 27.121094 56.066406 "/>
<path style=" stroke:none;fill-rule:nonzero;fill:url(#radial3);" d="M 36.382812 56.066406 L 41.675781 56.066406 L 41.675781 58.714844 L 36.382812 58.714844 Z M 36.382812 56.066406 "/>
<path style=" stroke:none;fill-rule:nonzero;fill:url(#linear1);" d="M 27.121094 55.40625 L 36.382812 55.40625 L 36.382812 58.714844 L 27.121094 58.714844 Z M 27.121094 55.40625 "/>
<path style="fill-rule:nonzero;fill:url(#linear2);stroke-width:11.338583;stroke-linecap:round;stroke-linejoin:miter;stroke:rgb(20%,20%,20%);stroke-opacity:1;stroke-miterlimit:4;" d="M 960.026483 175.140764 L 960.026483 535.106408 L 1200.003579 535.106408 C 1244.29069 535.106408 1279.956578 570.772296 1279.956578 615.059407 L 1279.956578 1255.155795 C 1279.956578 1299.442907 1244.29069 1335.108794 1200.003579 1335.108794 L 960.026483 1335.108794 L 960.026483 1695.074438 C 1381.049291 1695.074438 1719.99332 1356.13041 1719.99332 935.107601 C 1719.99332 514.084793 1381.049291 175.140764 960.026483 175.140764 Z M 960.026483 175.140764 " transform="matrix(0.0330761,0,0,0.0330761,0,0)"/>
<path style="fill-rule:evenodd;fill:url(#linear3);stroke-width:11.338583;stroke-linecap:butt;stroke-linejoin:miter;stroke:rgb(0%,0%,0%);stroke-opacity:1;stroke-miterlimit:4;" d="M 960.026483 175.140764 C 757.841055 175.140764 574.551462 253.322279 438.619554 381.223458 L 660.055113 555.065133 L 667.022952 555.065133 C 681.076729 542.664742 699.618266 535.106408 720.049387 535.106408 L 1200.003579 535.106408 C 1220.316601 535.106408 1238.858138 542.664742 1253.030014 555.065133 L 1259.997853 555.065133 L 1473.756979 374.255619 C 1338.769862 250.487904 1158.432743 175.140764 960.026483 175.140764 Z M 960.026483 175.140764 " transform="matrix(0.0330761,0,0,0.0330761,0,0)"/>
<path style="fill-rule:evenodd;fill:url(#linear4);stroke-width:11.338583;stroke-linecap:butt;stroke-linejoin:miter;stroke:rgb(0%,0%,0%);stroke-opacity:1;stroke-miterlimit:4;" d="M 1254.092904 1314.205277 C 1239.80293 1327.196164 1220.907095 1335.108794 1200.003579 1335.108794 L 840.037935 1335.108794 C 800.002386 1395.103068 780.043661 1455.097342 740.008112 1455.097342 C 717.805506 1455.097342 699.972563 1437.264398 699.972563 1415.061793 L 699.972563 1335.108794 C 684.3835 1335.108794 668.912535 1329.676242 657.456936 1316.21296 L 438.619554 1488.165052 C 574.551462 1616.066231 757.841055 1694.247745 960.026483 1694.247745 C 1158.432743 1694.247745 1338.769862 1618.900606 1473.756979 1495.132891 L 1259.997853 1314.205277 Z M 1254.092904 1314.205277 " transform="matrix(0.0330761,0,0,0.0330761,0,0)"/>
<path style=" stroke:none;fill-rule:nonzero;fill:rgb(0%,0%,0%);fill-opacity:0.196078;" d="M 31.753906 56.066406 C 17.828125 56.066406 6.613281 44.855469 6.613281 30.929688 C 6.613281 30.847656 6.617188 30.765625 6.617188 30.683594 C 6.746094 44.496094 17.910156 55.574219 31.753906 55.574219 C 45.597656 55.574219 56.757812 44.496094 56.890625 30.683594 C 56.890625 30.765625 56.890625 30.847656 56.890625 30.929688 C 56.890625 44.855469 45.679688 56.066406 31.753906 56.066406 Z M 31.753906 56.066406 "/>
<path style=" stroke:none;fill-rule:nonzero;fill:rgb(100%,100%,100%);fill-opacity:0.392157;" d="M 31.753906 5.792969 C 17.828125 5.792969 6.613281 17.003906 6.613281 30.929688 C 6.613281 31.011719 6.617188 31.09375 6.617188 31.175781 C 6.746094 17.363281 17.910156 6.285156 31.753906 6.285156 C 45.597656 6.285156 56.757812 17.363281 56.890625 31.175781 C 56.890625 31.09375 56.890625 31.011719 56.890625 30.929688 C 56.890625 17.003906 45.679688 5.792969 31.753906 5.792969 Z M 31.753906 5.792969 "/>
<path style=" stroke:none;fill-rule:nonzero;fill:rgb(12.941177%,12.941177%,12.941177%);fill-opacity:1;" d="M 31.753906 5.605469 C 17.726562 5.605469 6.425781 16.902344 6.425781 30.929688 C 6.425781 44.957031 17.726562 56.253906 31.753906 56.253906 C 45.78125 56.253906 57.078125 44.957031 57.078125 30.929688 C 57.078125 16.902344 45.78125 5.605469 31.753906 5.605469 Z M 31.753906 5.980469 C 45.578125 5.980469 56.703125 17.105469 56.703125 30.929688 C 56.703125 44.753906 45.578125 55.878906 31.753906 55.878906 C 17.925781 55.878906 6.800781 44.753906 6.800781 30.929688 C 6.800781 17.105469 17.925781 5.980469 31.753906 5.980469 Z M 31.753906 5.980469 "/>
</g>
</svg>

<svg xmlns="http://www.w3.org/2000/svg" width="64pt" height="64pt" viewBox="0 0 64 64"><defs><linearGradient id="a" gradientUnits="userSpaceOnUse" x1="254" y1="-126.333" x2="254" y2="180.583" gradientTransform="matrix(3.77953 0 0 3.77953 0 812.598)"><stop offset="0" stop-color="#f06292"/><stop offset="1" stop-color="#ec407a"/></linearGradient><radialGradient id="b" gradientUnits="userSpaceOnUse" cx="450.909" cy="189.579" fx="450.909" fy="189.579" r="21.167" gradientTransform="matrix(0 -.15626 -.28128 0 89.046 127.19)"><stop offset="0" stop-opacity=".314"/><stop offset=".222" stop-opacity=".275"/><stop offset="1" stop-opacity="0"/></radialGradient><radialGradient id="c" gradientUnits="userSpaceOnUse" cx="450.909" cy="189.579" fx="450.909" fy="189.579" r="21.167" gradientTransform="matrix(0 .15626 .28128 0 -25.54 -15.055)"><stop offset="0" stop-opacity=".314"/><stop offset=".222" stop-opacity=".275"/><stop offset="1" stop-opacity="0"/></radialGradient><radialGradient id="d" gradientUnits="userSpaceOnUse" cx="450.909" cy="189.579" fx="450.909" fy="189.579" r="21.167" gradientTransform="matrix(0 -.15626 .28128 0 -25.54 127.19)"><stop offset="0" stop-opacity=".314"/><stop offset=".222" stop-opacity=".275"/><stop offset="1" stop-opacity="0"/></radialGradient><radialGradient id="e" gradientUnits="userSpaceOnUse" cx="450.909" cy="189.579" fx="450.909" fy="189.579" r="21.167" gradientTransform="matrix(0 .15626 -.28128 0 89.046 -15.055)"><stop offset="0" stop-opacity=".314"/><stop offset=".222" stop-opacity=".275"/><stop offset="1" stop-opacity="0"/></radialGradient><linearGradient id="f" gradientUnits="userSpaceOnUse" x1="255.323" y1="233.5" x2="255.323" y2="254.667" gradientTransform="matrix(.02672 0 0 .12501 24.93 26.878)"><stop offset="0" stop-opacity=".275"/><stop offset="1" stop-opacity="0"/></linearGradient><linearGradient id="g" gradientUnits="userSpaceOnUse" x1="254" y1="-115.75" x2="254" y2="191.167" gradientTransform="matrix(3.77953 0 0 3.77953 0 812.598)"><stop offset="0" stop-color="#ff8a65"/><stop offset="1" stop-color="#ff7043"/></linearGradient><linearGradient id="h" gradientUnits="userSpaceOnUse" x1="960" y1="575.118" x2="960" y2="175.118"><stop offset="0" stop-color="#26c6da"/><stop offset="1" stop-color="#4dd0e1"/></linearGradient><linearGradient id="i" gradientUnits="userSpaceOnUse" x1="960" y1="574.199" x2="960" y2="175.118" gradientTransform="matrix(1 0 0 -1 0 1869.317)"><stop offset="0" stop-color="#ffb74d"/><stop offset="1" stop-color="#ffa726"/></linearGradient></defs><path d="M960.026 175.14c-421.022 0-760.084 338.945-760.084 759.968 0 421.022 339.062 759.966 760.084 759.966 421.023 0 759.967-338.944 759.967-759.966 0-421.023-338.944-759.967-759.967-759.967zM720.05 535.107h479.955c44.287 0 79.953 35.666 79.953 79.953v640.097c0 44.287-35.666 79.953-79.953 79.953H840.038c-40.036 59.994-59.994 119.988-100.03 119.988a39.919 39.919 0 0 1-40.035-40.035v-79.953c-29.998 0-59.995-19.959-59.995-79.953V615.059c0-44.287 35.666-79.953 80.071-79.953zm0 0" transform="scale(.03308)" fill="url(#a)" stroke-width="11.339" stroke-linecap="round" stroke="#333"/><path d="M36.383 56.066h5.293v-2.644h-5.293zm0 0" fill="url(#b)"/><path d="M27.121 56.066h-5.289v2.649h5.29zm0 0" fill="url(#c)"/><path d="M27.121 56.066h-5.289v-2.644h5.29zm0 0" fill="url(#d)"/><path d="M36.383 56.066h5.293v2.649h-5.293zm0 0" fill="url(#e)"/><path d="M27.121 55.406h9.262v3.309H27.12zm0 0" fill="url(#f)"/><path d="M960.026 175.14v359.966h239.978c44.287 0 79.953 35.666 79.953 79.953v640.097c0 44.287-35.666 79.953-79.953 79.953H960.026v359.965c421.023 0 759.967-338.944 759.967-759.966 0-421.023-338.944-759.967-759.967-759.967zm0 0" transform="scale(.03308)" fill="url(#g)" stroke-width="11.339" stroke-linecap="round" stroke="#333"/><path d="M960.026 175.14c-202.185 0-385.475 78.182-521.406 206.083l221.435 173.842h6.968c14.054-12.4 32.595-19.959 53.026-19.959h479.955c20.313 0 38.854 7.559 53.026 19.96h6.968l213.759-180.81C1338.77 250.488 1158.433 175.14 960.027 175.14zm0 0" transform="scale(.03308)" fill-rule="evenodd" fill="url(#h)" stroke-width="11.339" stroke="#000"/><path d="M1254.093 1314.205c-14.29 12.991-33.186 20.904-54.09 20.904H840.039c-40.036 59.994-59.994 119.988-100.03 119.988a39.919 39.919 0 0 1-40.035-40.035v-79.953c-15.59 0-31.06-5.433-42.516-18.896L438.62 1488.165c135.931 127.901 319.221 206.083 521.406 206.083 198.407 0 378.744-75.347 513.731-199.115l-213.76-180.928zm0 0" transform="scale(.03308)" fill-rule="evenodd" fill="url(#i)" stroke-width="11.339" stroke="#000"/><path d="M31.754 56.066A25.085 25.085 0 0 1 6.614 30.93l.003-.246c.13 13.812 11.293 24.89 25.137 24.89a25.082 25.082 0 0 0 25.137-24.89v.246a25.082 25.082 0 0 1-25.137 25.136zm0 0" fill-opacity=".196"/><path d="M31.754 5.793A25.085 25.085 0 0 0 6.614 30.93l.003.246c.13-13.813 11.293-24.89 25.137-24.89a25.082 25.082 0 0 1 25.137 24.89v-.246A25.082 25.082 0 0 0 31.754 5.793zm0 0" fill="#fff" fill-opacity=".392"/><path d="M31.754 5.605c-14.027 0-25.328 11.297-25.328 25.325 0 14.027 11.3 25.324 25.328 25.324A25.272 25.272 0 0 0 57.078 30.93 25.272 25.272 0 0 0 31.754 5.605zm0 .375a24.892 24.892 0 0 1 24.95 24.95 24.892 24.892 0 0 1-24.95 24.949A24.892 24.892 0 0 1 6.8 30.929 24.892 24.892 0 0 1 31.754 5.98zm0 0" fill="#212121"/></svg>
